src/pos-icons/language-cpp.svg

<svg height="24" viewBox="0 0 24 24" width="24" xmlns="http://www.w3.org/2000/svg"><path d="m10.5 15.97.41 2.44c-.26.14-.68.27-1.24.39-.57.13-1.24.2-2.01.2-2.21-.04-3.87-.7-4.98-1.96-1.12-1.27-1.68-2.88-1.68-4.83.05-2.31.72-4.08 2-5.32 1.32-1.25 2.96-1.89 4.94-1.89.75 0 1.4.07 1.94.19s.94.25 1.2.4l-.58 2.49-1.06-.34c-.4-.1-.86-.15-1.39-.15-1.16-.01-2.12.36-2.87 1.1-.76.73-1.15 1.85-1.18 3.34 0 1.36.37 2.42 1.08 3.2.71.77 1.71 1.17 2.99 1.18l1.33-.12c.43-.08.79-.19 1.1-.32m.5-4.97h2v-2h2v2h2v2h-2v2h-2v-2h-2zm7 0h2v-2h2v2h2v2h-2v2h-2v-2h-2z"/></svg>

<?xml version="1.0" encoding="UTF-8"?><!DOCTYPE svg PUBLIC "-//W3C//DTD SVG 1.1//EN" "http://www.w3.org/Graphics/SVG/1.1/DTD/svg11.dtd"><svg xmlns="http://www.w3.org/2000/svg" xmlns:xlink="http://www.w3.org/1999/xlink" version="1.1" id="mdi-language-cpp" width="24" height="24" viewBox="0 0 24 24"><path d="M10.5,15.97L10.91,18.41C10.65,18.55 10.23,18.68 9.67,18.8C9.1,18.93 8.43,19 7.66,19C5.45,18.96 3.79,18.3 2.68,17.04C1.56,15.77 1,14.16 1,12.21C1.05,9.9 1.72,8.13 3,6.89C4.32,5.64 5.96,5 7.94,5C8.69,5 9.34,5.07 9.88,5.19C10.42,5.31 10.82,5.44 11.08,5.59L10.5,8.08L9.44,7.74C9.04,7.64 8.58,7.59 8.05,7.59C6.89,7.58 5.93,7.95 5.18,8.69C4.42,9.42 4.03,10.54 4,12.03C4,13.39 4.37,14.45 5.08,15.23C5.79,16 6.79,16.4 8.07,16.41L9.4,16.29C9.83,16.21 10.19,16.1 10.5,15.97M11,11H13V9H15V11H17V13H15V15H13V13H11V11M18,11H20V9H22V11H24V13H22V15H20V13H18V11Z" /></svg>
